static/images/icons/mail-icon.svg

<svg fill="none" height="42" viewBox="0 0 42 42" width="42" xmlns="http://www.w3.org/2000/svg" xmlns:xlink="http://www.w3.org/1999/xlink"><linearGradient id="a" gradientUnits="userSpaceOnUse" x1="8.5" x2="34.5" y1="7" y2="36"><stop offset="0" stop-color="#fec976"/><stop offset=".5" stop-color="#ffea8d"/><stop offset="1" stop-color="#cade39"/></linearGradient><clipPath id="b"><path d="m0 0h42v42h-42z"/></clipPath><g clip-path="url(#b)"><path d="m21 42c11.598 0 21-9.402 21-21 0-11.59798-9.402-21-21-21-11.59798 0-21 9.40202-21 21 0 11.598 9.40202 21 21 21z" fill="url(#a)"/><path clip-rule="evenodd" d="m33.38 11c.8947 0 1.62.7253 1.62 1.62v16.76c0 .8947-.7253 1.62-1.62 1.62h-23.76c-.8947 0-1.62-.7253-1.62-1.62v-16.76c0-.8947.7253-1.62 1.62-1.62zm-18.0431 12.072c-3.3957 3.0707-4.1946 3.7933-4.7797 4.3224l-.1324.1197c-.0435.0394-.0869.0786-.1312.1187l-.0901.0814c-.0613.0555-.1255.1135-.1951.1765-.33184.3001-.35758.8123-.05752 1.1441.30002.3318.81222.3575 1.14402.0575.8881-.8032.8881-.8032 5.3286-4.8187.3318-.3001.3575-.8123.0574-1.1441-.3-.3318-.8122-.3575-1.144-.0575zm12.3262 0c-.3318-.3-.844-.2743-1.144.0575-.3001.3318-.2744.844.0574 1.1441 4.4405 4.0155 4.4405 4.0155 5.3286 4.8187.3318.3.844.2743 1.144-.0575.3001-.3318.2743-.844-.0575-1.1441-.0696-.063-.1338-.121-.1951-.1765l-.0901-.0814c-.0443-.0401-.0877-.0793-.1312-.1187l-.1324-.1197c-.5851-.5291-1.384-1.2517-4.7797-4.3224zm4.3391-10.1643c-2.9083 2.63-4.1458 3.7492-5.2832 4.7777l-.504.4558c-.6769.6121-1.4002 1.2662-2.4969 2.258-1.3311 1.2037-1.8922 1.7111-2.2178 2.0056-.3251-.2934-.886-.8007-2.2184-2.0056-1.0967-.9918-1.82-1.6459-2.4969-2.258l-.504-.4558c-1.1374-1.0285-2.3749-2.1477-5.2832-4.7777-.3318-.3-.844-.2743-1.14403.0575-.30005.3318-.27432.844.05748 1.1441 2.90825 2.63 4.14575 3.7491 5.28315 4.7777l.2518.2276c.7541.682 1.5153 1.3704 2.7491 2.4862 1.7978 1.6257 2.1911 1.9814 2.4965 2.2576l.0723.0654c.06.0542.1207.1091.1926.1741.0025.0023.0051.0046.0077.0069l-.0652-.0643c.0357.0394.0743.0745.1153.1052.014.0104.0281.0203.0424.0297.0134.0088.027.0172.0409.0251.0158.009.0317.0174.0478.0252.0163.008.0329.0153.0496.0221.017.007.0343.0133.0519.0191.0128.0041.0254.0079.038.0114.0203.0056.041.0104.0619.0144.0205.0038.0408.0069.0612.0093.0114.0013.0231.0024.0349.0032.0189.0013.0377.002.0565.002.0189 0 .038-.0007.0571-.002.012-.0008.0237-.0019.0354-.0032.0201-.0024.0404-.0055.0606-.0093.0212-.004.0419-.0088.0625-.0145.0123-.0034.0249-.0072.0374-.0113.0179-.0058.0352-.0121.0524-.0191.0165-.0068.0331-.0141.0495-.0221.016-.0078.0319-.0162.0476-.0252.014-.0079.0276-.0163.041-.0251.0143-.0094.0284-.0193.0423-.0297l.0362-.0287.014-.0122c.0026-.0023.0052-.0046.0077-.0069.0719-.065.1326-.1199.1926-.1741l.0723-.0654c.3054-.2762.6987-.6319 2.4965-2.2576 1.2338-1.1158 1.995-1.8042 2.7491-2.4862l.2518-.2276c1.1374-1.0286 2.3749-2.1477 5.2831-4.7777.3318-.3001.3576-.8123.0575-1.1441-.3-.3318-.8122-.3575-1.144-.0575z" fill="#0e1025" fill-rule="evenodd"/></g></svg>

<svg width="42" height="42" viewBox="0 0 42 42" fill="none" xmlns="http://www.w3.org/2000/svg">
<g clip-path="url(#clip0_586_4580)">
<path d="M21 42C32.598 42 42 32.598 42 21C42 9.40202 32.598 0 21 0C9.40202 0 0 9.40202 0 21C0 32.598 9.40202 42 21 42Z" fill="url(#paint0_linear_586_4580)"/>
<path fill-rule="evenodd" clip-rule="evenodd" d="M33.38 11C34.2747 11 35 11.7253 35 12.62V29.38C35 30.2747 34.2747 31 33.38 31H9.62C8.7253 31 8 30.2747 8 29.38V12.62C8 11.7253 8.7253 11 9.62 11H33.38ZM15.3369 23.072C11.9412 26.1427 11.1423 26.8653 10.5572 27.3944L10.4248 27.5141C10.3813 27.5535 10.3379 27.5927 10.2936 27.6328L10.2035 27.7142C10.1422 27.7697 10.078 27.8277 10.0084 27.8907C9.67656 28.1908 9.65082 28.703 9.95088 29.0348C10.2509 29.3666 10.7631 29.3923 11.0949 29.0923C11.983 28.2891 11.983 28.2891 16.4235 24.2736C16.7553 23.9735 16.781 23.4613 16.4809 23.1295C16.1809 22.7977 15.6687 22.772 15.3369 23.072ZM27.6631 23.072C27.3313 22.772 26.8191 22.7977 26.5191 23.1295C26.219 23.4613 26.2447 23.9735 26.5765 24.2736C31.017 28.2891 31.017 28.2891 31.9051 29.0923C32.2369 29.3923 32.7491 29.3666 33.0491 29.0348C33.3492 28.703 33.3234 28.1908 32.9916 27.8907C32.922 27.8277 32.8578 27.7697 32.7965 27.7142L32.7064 27.6328C32.6621 27.5927 32.6187 27.5535 32.5752 27.5141L32.4428 27.3944C31.8577 26.8653 31.0588 26.1427 27.6631 23.072ZM32.0022 12.9077C29.0939 15.5377 27.8564 16.6569 26.719 17.6854L26.215 18.1412C25.5381 18.7533 24.8148 19.4074 23.7181 20.3992C22.387 21.6029 21.8259 22.1103 21.5003 22.4048C21.1752 22.1114 20.6143 21.6041 19.2819 20.3992C18.1852 19.4074 17.4619 18.7533 16.785 18.1412L16.281 17.6854C15.1436 16.6569 13.9061 15.5377 10.9978 12.9077C10.666 12.6077 10.1538 12.6334 9.85377 12.9652C9.55372 13.297 9.57945 13.8092 9.91125 14.1093C12.8195 16.7393 14.057 17.8584 15.1944 18.887L15.4462 19.1146C16.2003 19.7966 16.9615 20.485 18.1953 21.6008C19.9931 23.2265 20.3864 23.5822 20.6918 23.8584L20.7641 23.9238C20.8241 23.978 20.8848 24.0329 20.9567 24.0979C20.9592 24.1002 20.9618 24.1025 20.9644 24.1048L20.8992 24.0405C20.9349 24.0799 20.9735 24.115 21.0145 24.1457C21.0285 24.1561 21.0426 24.166 21.0569 24.1754C21.0703 24.1842 21.0839 24.1926 21.0978 24.2005C21.1136 24.2095 21.1295 24.2179 21.1456 24.2257C21.1619 24.2337 21.1785 24.241 21.1952 24.2478C21.2122 24.2548 21.2295 24.2611 21.2471 24.2669C21.2599 24.271 21.2725 24.2748 21.2851 24.2783C21.3054 24.2839 21.3261 24.2887 21.347 24.2927C21.3675 24.2965 21.3878 24.2996 21.4082 24.302C21.4196 24.3033 21.4313 24.3044 21.4431 24.3052C21.462 24.3065 21.4808 24.3072 21.4996 24.3072C21.5185 24.3072 21.5376 24.3065 21.5567 24.3052C21.5687 24.3044 21.5804 24.3033 21.5921 24.302C21.6122 24.2996 21.6325 24.2965 21.6527 24.2927C21.6739 24.2887 21.6946 24.2839 21.7152 24.2782C21.7275 24.2748 21.7401 24.271 21.7526 24.2669C21.7705 24.2611 21.7878 24.2548 21.805 24.2478C21.8215 24.241 21.8381 24.2337 21.8545 24.2257C21.8705 24.2179 21.8864 24.2095 21.9021 24.2005C21.9161 24.1926 21.9297 24.1842 21.9431 24.1754C21.9574 24.166 21.9715 24.1561 21.9854 24.1457L22.0216 24.117L22.0356 24.1048C22.0382 24.1025 22.0408 24.1002 22.0433 24.0979C22.1152 24.0329 22.1759 23.978 22.2359 23.9238L22.3082 23.8584C22.6136 23.5822 23.0069 23.2265 24.8047 21.6008C26.0385 20.485 26.7997 19.7966 27.5538 19.1146L27.8056 18.887C28.943 17.8584 30.1805 16.7393 33.0887 14.1093C33.4205 13.8092 33.4463 13.297 33.1462 12.9652C32.8462 12.6334 32.334 12.6077 32.0022 12.9077Z" fill="#0E1025"/>
</g>
<defs>
<linearGradient id="paint0_linear_586_4580" x1="8.5" y1="7" x2="34.5" y2="36" gradientUnits="userSpaceOnUse">
<stop stop-color="#FEC976"/>
<stop offset="0.5" stop-color="#FFEA8D"/>
<stop offset="1" stop-color="#CADE39"/>
</linearGradient>
<clipPath id="clip0_586_4580">
<rect width="42" height="42" fill="white"/>
</clipPath>
</defs>
</svg>
